src/assets/skills/sqlite-studio.svg

<svg height="100pt" viewBox="0 0 100 100" width="100pt" xmlns="http://www.w3.org/2000/svg" xmlns:xlink="http://www.w3.org/1999/xlink"><mask id="a" height="400%" width="400%" x="-200%" y="-200%"><rect fill="#fff" height="400%" width="400%" x="-200%" y="-200%"/><path d="m49.749 20.82c-14.482 0-26.256 4.096-26.256 9.135v34.689c0 5.039 11.774 9.136 26.256 9.136 14.481 0 26.724-4.097 26.724-9.136 0-.298 0-34.39 0-34.689 0-5.039-12.243-9.135-26.724-9.135z"/></mask><linearGradient id="b" x1=".242453" x2=".892437" y1=".127852" y2="1.457582"><stop offset="0" stop-color="#fff"/><stop offset="1" stop-color="#fff" stop-opacity="0"/></linearGradient><linearGradient id="c"><stop offset="0" stop-color="#ababab"/><stop offset=".19415782" stop-color="#f6f6f6"/><stop offset=".39749253" stop-color="#b0b0b0"/><stop offset="1" stop-color="#585858"/></linearGradient><linearGradient id="d" gradientTransform="matrix(55.131 0 0 28.642 22.454 51.358)" gradientUnits="userSpaceOnUse" x1="0" x2="1" xlink:href="#c" y1=".456993" y2=".456993"/><mask id="e" height="400%" width="400%" x="-200%" y="-200%"><rect fill="#fff" height="400%" width="400%" x="-200%" y="-200%"/><path d="m76.248 60.621c0 4.546-11.8 8.232-26.356 8.232s-26.356-3.686-26.356-8.232 11.8-8.231 26.356-8.231 26.356 3.685 26.356 8.231z"/></mask><linearGradient id="f" x1=".5" x2=".5" y1=".598003" y2=".428503"><stop offset="0" stop-color="#a2a2a2"/><stop offset="1" stop-color="#4e4e4e"/></linearGradient><linearGradient id="g" gradientTransform="matrix(55.131 0 0 28.642 22.415 35.616)" gradientUnits="userSpaceOnUse" x1="0" x2="1" xlink:href="#c" y1=".456993" y2=".456993"/><mask id="h" height="400%" width="400%" x="-200%" y="-200%"><rect fill="#fff" height="400%" width="400%" x="-200%" y="-200%"/><path d="m76.208 44.879c0 4.546-11.8 8.231-26.355 8.231-14.556 0-26.356-3.685-26.356-8.231s11.8-8.231 26.356-8.231c14.555 0 26.355 3.685 26.355 8.231z"/></mask><linearGradient id="i" gradientTransform="matrix(55.131 0 0 28.642 22.417 20)" gradientUnits="userSpaceOnUse" x1="0" x2="1" xlink:href="#c" y1=".456993" y2=".456993"/><mask id="j" height="400%" width="400%" x="-200%" y="-200%"><rect fill="#fff" height="400%" width="400%" x="-200%" y="-200%"/><path d="m76.211 29.263c0 4.546-11.8 8.232-26.356 8.232s-26.356-3.686-26.356-8.232 11.8-8.231 26.356-8.231 26.356 3.685 26.356 8.231z"/></mask><g fill="none" opacity=".544304"><path d="m49.749 20.82c-14.482 0-26.256 4.096-26.256 9.135v34.689c0 5.039 11.774 9.136 26.256 9.136 14.481 0 26.724-4.097 26.724-9.136 0-.298 0-34.39 0-34.689 0-5.039-12.243-9.135-26.724-9.135z" mask="url(#a)" stroke="url(#b)" stroke-miterlimit="10" stroke-width="9.102"/><path d="m49.749 20.82c-14.482 0-26.256 4.096-26.256 9.135v34.689c0 5.039 11.774 9.136 26.256 9.136 14.481 0 26.724-4.097 26.724-9.136 0-.298 0-34.39 0-34.689 0-5.039-12.243-9.135-26.724-9.135z"/></g><path d="m49.776 51.358c-15.069 0-27.322 4.262-27.322 9.506v10.281c0 5.244 12.253 8.855 27.322 8.855 15.068 0 27.809-3.611 27.809-8.855 0-.31 0-9.97 0-10.281 0-5.244-12.741-9.506-27.809-9.506z" fill="url(#d)"/><path d="m76.248 60.621c0 4.546-11.8 8.232-26.356 8.232s-26.356-3.686-26.356-8.232 11.8-8.231 26.356-8.231 26.356 3.685 26.356 8.231z" fill="#c3c3c3" mask="url(#e)" stroke="url(#f)" stroke-miterlimit="10" stroke-width="9.203"/><path d="m76.248 60.621c0 4.546-11.8 8.232-26.356 8.232s-26.356-3.686-26.356-8.232 11.8-8.231 26.356-8.231 26.356 3.685 26.356 8.231z" fill="#c3c3c3"/><path d="m49.736 35.616c-15.068 0-27.321 4.262-27.321 9.506v10.281c0 5.244 12.253 8.855 27.321 8.855 15.069 0 27.81-3.611 27.81-8.855 0-.31 0-9.971 0-10.281 0-5.244-12.741-9.506-27.81-9.506z" fill="url(#g)"/><path d="m76.208 44.879c0 4.546-11.8 8.231-26.355 8.231-14.556 0-26.356-3.685-26.356-8.231s11.8-8.231 26.356-8.231c14.555 0 26.355 3.685 26.355 8.231z" fill="#c3c3c3" mask="url(#h)" stroke="url(#f)" stroke-miterlimit="10" stroke-width="9.203"/><path d="m76.208 44.879c0 4.546-11.8 8.231-26.355 8.231-14.556 0-26.356-3.685-26.356-8.231s11.8-8.231 26.356-8.231c14.555 0 26.355 3.685 26.355 8.231z" fill="#c3c3c3"/><path d="m49.739 20c-15.069 0-27.322 4.263-27.322 9.506v10.282c0 5.243 12.253 8.854 27.322 8.854s27.809-3.611 27.809-8.854c0-.311 0-9.971 0-10.282 0-5.243-12.74-9.506-27.809-9.506z" fill="url(#i)"/><g fill="#c3c3c3"><path d="m76.211 29.263c0 4.546-11.8 8.232-26.356 8.232s-26.356-3.686-26.356-8.232 11.8-8.231 26.356-8.231 26.356 3.685 26.356 8.231z" mask="url(#j)" stroke="url(#f)" stroke-miterlimit="10" stroke-width="9.203"/><path d="m76.211 29.263c0 4.546-11.8 8.232-26.356 8.232s-26.356-3.686-26.356-8.232 11.8-8.231 26.356-8.231 26.356 3.685 26.356 8.231z"/></g></svg>

<?xml version="1.0" encoding="UTF-8" standalone="no"?><!-- Generator: Gravit.io --><svg xmlns="http://www.w3.org/2000/svg" xmlns:xlink="http://www.w3.org/1999/xlink" style="isolation:isolate" viewBox="0 0 100 100" width="100pt" height="100pt"><g><g opacity="0.5443038"><mask id="_mask_uNm2hUNuehTOO5Txlen3aQt96eVyAqPl" x="-200%" y="-200%" width="400%" height="400%"><rect x="-200%" y="-200%" width="400%" height="400%" style="fill:white;"/><path d=" M 49.749 20.82 C 35.267 20.82 23.493 24.916 23.493 29.955 C 23.493 30.317 23.493 64.268 23.493 64.644 C 23.493 69.683 35.267 73.78 49.749 73.78 C 64.23 73.78 76.473 69.683 76.473 64.644 C 76.473 64.346 76.473 30.254 76.473 29.955 C 76.473 24.916 64.23 20.82 49.749 20.82 Z " fill="black" stroke="none"/></mask><linearGradient id="_lgradient_77" x1="0.24245311784480195" y1="0.12785153997383433" x2="0.8924373402940879" y2="1.4575817009073468"><stop offset="0%" stop-opacity="1" style="stop-color:rgb(255,255,255)"/><stop offset="100%" stop-opacity="0" style="stop-color:rgb(255,255,255)"/></linearGradient><path d=" M 49.749 20.82 C 35.267 20.82 23.493 24.916 23.493 29.955 C 23.493 30.317 23.493 64.268 23.493 64.644 C 23.493 69.683 35.267 73.78 49.749 73.78 C 64.23 73.78 76.473 69.683 76.473 64.644 C 76.473 64.346 76.473 30.254 76.473 29.955 C 76.473 24.916 64.23 20.82 49.749 20.82 Z " fill="none" mask="url(#_mask_uNm2hUNuehTOO5Txlen3aQt96eVyAqPl)" vector-effect="non-scaling-stroke" stroke-width="9.102" stroke="url(#_lgradient_77)" stroke-linejoin="miter" stroke-linecap="butt" stroke-miterlimit="10"/><path d=" M 49.749 20.82 C 35.267 20.82 23.493 24.916 23.493 29.955 C 23.493 30.317 23.493 64.268 23.493 64.644 C 23.493 69.683 35.267 73.78 49.749 73.78 C 64.23 73.78 76.473 69.683 76.473 64.644 C 76.473 64.346 76.473 30.254 76.473 29.955 C 76.473 24.916 64.23 20.82 49.749 20.82 Z " fill="none"/></g><linearGradient id="_lgradient_78" x1="-5.120814106085447e-9" y1="0.45699299780268005" x2="0.9999999948791689" y2="0.45699299780268005" gradientTransform="matrix(55.131,0,0,28.642,22.454,51.358)" gradientUnits="userSpaceOnUse"><stop offset="0%" stop-opacity="1" style="stop-color:rgb(171,171,171)"/><stop offset="19.415782%" stop-opacity="1" style="stop-color:rgb(246,246,246)"/><stop offset="39.749253%" stop-opacity="1" style="stop-color:rgb(176,176,176)"/><stop offset="100%" stop-opacity="1" style="stop-color:rgb(88,88,88)"/></linearGradient><path d=" M 49.776 51.358 C 34.707 51.358 22.454 55.62 22.454 60.864 C 22.454 61.241 22.454 70.754 22.454 71.145 C 22.454 76.389 34.707 80 49.776 80 C 64.844 80 77.585 76.389 77.585 71.145 C 77.585 70.835 77.585 61.175 77.585 60.864 C 77.585 55.62 64.844 51.358 49.776 51.358 Z " fill="url(#_lgradient_78)"/><mask id="_mask_4lD6v8PDFQQpC2R0OP80iCMt0frezVK1" x="-200%" y="-200%" width="400%" height="400%"><rect x="-200%" y="-200%" width="400%" height="400%" style="fill:white;"/><path d=" M 76.248 60.621 C 76.248 65.167 64.448 68.853 49.892 68.853 C 35.336 68.853 23.536 65.167 23.536 60.621 C 23.536 56.075 35.336 52.39 49.892 52.39 C 64.448 52.39 76.248 56.075 76.248 60.621 Z " fill="black" stroke="none"/></mask><linearGradient id="_lgradient_79" x1="0.5" y1="0.5980025344909783" x2="0.5" y2="0.4285030753228112"><stop offset="0%" stop-opacity="1" style="stop-color:rgb(162,162,162)"/><stop offset="100%" stop-opacity="1" style="stop-color:rgb(78,78,78)"/></linearGradient><path d=" M 76.248 60.621 C 76.248 65.167 64.448 68.853 49.892 68.853 C 35.336 68.853 23.536 65.167 23.536 60.621 C 23.536 56.075 35.336 52.39 49.892 52.39 C 64.448 52.39 76.248 56.075 76.248 60.621 Z " fill="rgb(195,195,195)" mask="url(#_mask_4lD6v8PDFQQpC2R0OP80iCMt0frezVK1)" vector-effect="non-scaling-stroke" stroke-width="9.203" stroke="url(#_lgradient_79)" stroke-linejoin="miter" stroke-linecap="butt" stroke-miterlimit="10"/><path d=" M 76.248 60.621 C 76.248 65.167 64.448 68.853 49.892 68.853 C 35.336 68.853 23.536 65.167 23.536 60.621 C 23.536 56.075 35.336 52.39 49.892 52.39 C 64.448 52.39 76.248 56.075 76.248 60.621 Z " fill="rgb(195,195,195)"/><linearGradient id="_lgradient_80" x1="-5.120814106085447e-9" y1="0.45699299780268005" x2="0.9999999948791689" y2="0.45699299780268005" gradientTransform="matrix(55.131,0,0,28.642,22.415,35.616)" gradientUnits="userSpaceOnUse"><stop offset="0%" stop-opacity="1" style="stop-color:rgb(171,171,171)"/><stop offset="19.415782%" stop-opacity="1" style="stop-color:rgb(246,246,246)"/><stop offset="39.749253%" stop-opacity="1" style="stop-color:rgb(176,176,176)"/><stop offset="100%" stop-opacity="1" style="stop-color:rgb(88,88,88)"/></linearGradient><path d=" M 49.736 35.616 C 34.668 35.616 22.415 39.878 22.415 45.122 C 22.415 45.498 22.415 55.011 22.415 55.403 C 22.415 60.647 34.668 64.258 49.736 64.258 C 64.805 64.258 77.546 60.647 77.546 55.403 C 77.546 55.093 77.546 45.432 77.546 45.122 C 77.546 39.878 64.805 35.616 49.736 35.616 Z " fill="url(#_lgradient_80)"/><mask id="_mask_cqJuCVXHIEZF8uOKwtGkA6ky1Iv6kaDh" x="-200%" y="-200%" width="400%" height="400%"><rect x="-200%" y="-200%" width="400%" height="400%" style="fill:white;"/><path d=" M 76.208 44.879 C 76.208 49.425 64.408 53.11 49.853 53.11 C 35.297 53.11 23.497 49.425 23.497 44.879 C 23.497 40.333 35.297 36.648 49.853 36.648 C 64.408 36.648 76.208 40.333 76.208 44.879 Z " fill="black" stroke="none"/></mask><linearGradient id="_lgradient_81" x1="0.5" y1="0.5980025344909783" x2="0.5" y2="0.4285030753228112"><stop offset="0%" stop-opacity="1" style="stop-color:rgb(162,162,162)"/><stop offset="100%" stop-opacity="1" style="stop-color:rgb(78,78,78)"/></linearGradient><path d=" M 76.208 44.879 C 76.208 49.425 64.408 53.11 49.853 53.11 C 35.297 53.11 23.497 49.425 23.497 44.879 C 23.497 40.333 35.297 36.648 49.853 36.648 C 64.408 36.648 76.208 40.333 76.208 44.879 Z " fill="rgb(195,195,195)" mask="url(#_mask_cqJuCVXHIEZF8uOKwtGkA6ky1Iv6kaDh)" vector-effect="non-scaling-stroke" stroke-width="9.203" stroke="url(#_lgradient_81)" stroke-linejoin="miter" stroke-linecap="butt" stroke-miterlimit="10"/><path d=" M 76.208 44.879 C 76.208 49.425 64.408 53.11 49.853 53.11 C 35.297 53.11 23.497 49.425 23.497 44.879 C 23.497 40.333 35.297 36.648 49.853 36.648 C 64.408 36.648 76.208 40.333 76.208 44.879 Z " fill="rgb(195,195,195)"/><linearGradient id="_lgradient_82" x1="-5.120814106085447e-9" y1="0.45699299780268005" x2="0.9999999948791689" y2="0.45699299780268005" gradientTransform="matrix(55.131,0,0,28.642,22.417,20)" gradientUnits="userSpaceOnUse"><stop offset="0%" stop-opacity="1" style="stop-color:rgb(171,171,171)"/><stop offset="19.415782%" stop-opacity="1" style="stop-color:rgb(246,246,246)"/><stop offset="39.749253%" stop-opacity="1" style="stop-color:rgb(176,176,176)"/><stop offset="100%" stop-opacity="1" style="stop-color:rgb(88,88,88)"/></linearGradient><path d=" M 49.739 20 C 34.67 20 22.417 24.263 22.417 29.506 C 22.417 29.883 22.417 39.396 22.417 39.788 C 22.417 45.031 34.67 48.642 49.739 48.642 C 64.808 48.642 77.548 45.031 77.548 39.788 C 77.548 39.477 77.548 29.817 77.548 29.506 C 77.548 24.263 64.808 20 49.739 20 Z " fill="url(#_lgradient_82)"/><mask id="_mask_IlU2TEWPNYFZDRKipPx1fLLVRKCJQjf8" x="-200%" y="-200%" width="400%" height="400%"><rect x="-200%" y="-200%" width="400%" height="400%" style="fill:white;"/><path d=" M 76.211 29.263 C 76.211 33.809 64.411 37.495 49.855 37.495 C 35.299 37.495 23.499 33.809 23.499 29.263 C 23.499 24.717 35.299 21.032 49.855 21.032 C 64.411 21.032 76.211 24.717 76.211 29.263 Z " fill="black" stroke="none"/></mask><linearGradient id="_lgradient_83" x1="0.5" y1="0.5980025344909783" x2="0.5" y2="0.4285030753228112"><stop offset="0%" stop-opacity="1" style="stop-color:rgb(162,162,162)"/><stop offset="100%" stop-opacity="1" style="stop-color:rgb(78,78,78)"/></linearGradient><path d=" M 76.211 29.263 C 76.211 33.809 64.411 37.495 49.855 37.495 C 35.299 37.495 23.499 33.809 23.499 29.263 C 23.499 24.717 35.299 21.032 49.855 21.032 C 64.411 21.032 76.211 24.717 76.211 29.263 Z " fill="rgb(195,195,195)" mask="url(#_mask_IlU2TEWPNYFZDRKipPx1fLLVRKCJQjf8)" vector-effect="non-scaling-stroke" stroke-width="9.203" stroke="url(#_lgradient_83)" stroke-linejoin="miter" stroke-linecap="butt" stroke-miterlimit="10"/><path d=" M 76.211 29.263 C 76.211 33.809 64.411 37.495 49.855 37.495 C 35.299 37.495 23.499 33.809 23.499 29.263 C 23.499 24.717 35.299 21.032 49.855 21.032 C 64.411 21.032 76.211 24.717 76.211 29.263 Z " fill="rgb(195,195,195)"/></g></svg>
